packages/icon/src/svg/courses.icon.svg

<svg width="24" height="24" viewBox="0 0 24 24" fill="none" xmlns="http://www.w3.org/2000/svg">
<path fill-rule="evenodd" clip-rule="evenodd" d="M18 2.9751C18 2.42281 17.5523 1.9751 17 1.9751H1C0.447715 1.9751 0 2.42281 0 2.9751V14.9751C0 15.5274 0.447715 15.9751 1 15.9751H17C17.5523 15.9751 18 15.5274 18 14.9751V2.9751ZM19 9.9751V7.9751H23C23.5523 7.9751 24 8.42281 24 8.9751V20.9751C24 21.5274 23.5523 21.9751 23 21.9751H7C6.44772 21.9751 6 21.5274 6 20.9751V16.9751H8V19.9751H21.997L21.999 13.9751H19V11.9751H22V9.9751H19ZM16 5.9751H10V3.9751H16V5.9751ZM6 3.9751V5.9751H8V3.9751H6ZM4 5.9751H2V3.9751H4V5.9751ZM2 7.9751V13.9751H15.997L15.999 7.9751H2Z" fill="white"/>
</svg>

<svg aria-label="courses icon" viewBox="0 0 24 24"><path fill-rule="evenodd" clip-rule="evenodd" d="M18 2.975a1 1 0 00-1-1H1a1 1 0 00-1 1v12a1 1 0 001 1h16a1 1 0 001-1v-12zm1 7v-2h4a1 1 0 011 1v12a1 1 0 01-1 1H7a1 1 0 01-1-1v-4h2v3h13.997l.002-6H19v-2h3v-2h-3zm-3-4h-6v-2h6v2zm-10-2v2h2v-2H6zm-2 2H2v-2h2v2zm-2 2v6h13.997l.002-6H2z"/></svg>
